X: 36
T: Piano Sonata No. 8 in A minor, K 310 (300d), mvmt. 3
C: Wolfgang Amadeus Mozart
%%abc-version 2.0
%%abcx-abcm2ps-target-version 5.9.1 (29 Sep 2008)
%%abc-creator hum2abc beta
%%abcx-conversion-date 2021/01/14 17:01:33
%%abc-copyright 2018 Craig Stuart Sapp
%%abc-edited-by Craig Stuart Sapp
%%abc-edited-by Craig Stuart Sapp
%%abcx-initial-encoding-date 2009/09/28
%%gracespace 0 6 6
%%humdrum-veritas 687665955
%%humdrum-veritas-data 4274865739
%%linebreak <none>
%%barnumbers 0
L: 1/8
M: 2/4
N: Derived from sonata08-3.krn
Q: "Presto" 1/4=160
%%staves {1 2}
V: 1 clef=treble
V: 2 clef=bass
K: C
[V:1] c3B & A3^G | 
[V:2] z A,ED & zA,3 | 
[V:1] A3^G & E4 | 
[V:2] z A,CB, & zA,3 | 
[V:1] A3B & E4 | 
[V:2] z A,C^G, | 
[V:1] {/d}c2B2 & A2^G2 | 
[V:2] z A,EE, | 
[V:1] d3c & A4 | 
[V:2] z F,FE | 
[V:1] f3e & A4 | 
[V:2] z D,DC | 
[V:1] d3c & ^G3A | 
[V:2] z B,,B,A, | 
[V:1] cB GE & ^G2z2 | 
[V:2] [E,2E2]E,2 | 
[V:1] c3B & A3^G | 
[V:2] z A,ED & zA,3 | 
[V:1] A3^G & E4 | 
[V:2] z A,CB, & zA,3 | 
[V:1] A3B & E4 | 
[V:2] z A,C^G, | 
[V:1] {/d}c2B2 & A2^G2 | 
[V:2] z A,EE, | 
[V:1] f3e & A4 | 
[V:2] z D,DC | 
[V:1] d3c & A4 | 
[V:2] z F,FE | 
[V:1] cBA^G | 
[V:2] D2E2 | 
[V:1] A .^c.d.e | 
[V:2] F2z2 | 
[V:1] f3e & A4 | 
[V:2] z D,D=C | 
[V:1] [d3^g3][=ca] | 
[V:2] z B,,B,A, | 
[V:1] [ce][Bd][Ac][^GB] | 
[V:2] D2E2 | 
[V:1] A .c.d.e | 
[V:2] A,2z2 | 
[V:1] f3a | 
[V:2] zA,3 & z A,CF | 
[V:1] fe^de | 
[V:2] zG,3 & z G,CE | 
[V:1] a3c' | 
[V:2] zF,3 & z F,A,C | 
[V:1] ag^fg | 
[V:2] zE,3[K:clef=treble] & z E,G,C | 
[V:1] {/c//}c'3b | 
[V:2] z EGc & zE3 | 
[V:1] baag | 
[V:2] FcEc | 
[V:1] !mordent!gf!mordent!fe | 
[V:2] DBCc | 
[V:1] [c2e2][B2d2] | 
[V:2] G2G,2 | 
[V:1] [c3_e3][Bd] | 
[V:2] z CGF & zC3 | 
[V:1] c3[Bd] | 
[V:2] z C_ED[K:clef=bass] & zC3 | 
[V:1] _e3f & c4 | 
[V:2] z C_E_A, | 
[V:1] _e2d2 & c2B2 | 
[V:2] z G,^F,G, | 
[V:1] [d3f3][c=e] | 
[V:2] z G,B,C & zG,3 | 
[V:1] [B3d3][ce] | 
[V:2] z G,F=E & zG,3 | 
[V:1] [d3f3][eg] | 
[V:2] z DB,G, | 
[V:1] [d2f2][c2e2] | 
[V:2] z B,CC, | 
[V:1] [g3c'3][fb] | 
[V:2] E,EGD | 
[V:1] [e3a3][dg] | 
[V:2] C,CEB, | 
[V:1] [c3f3][Be] | 
[V:2] A,,A,CG, | 
[V:1] [A3d3][G^c] | 
[V:2] F,,F,A,E, | 
[V:1] dAeA | 
[V:2] F,2^C,2 | 
[V:1] fafd | 
[V:2] D,2z F, | 
[V:1] =c2d2- & [E2G2][G2B2]- | 
[V:2] G,2G,,2 | 
[V:1] d^de x & [G2-B2][Gc] .g | 
[V:2] C,3z | 
[V:1] [g3c'3][fb] | 
[V:2] E,EGD | 
[V:1] [e3a3][dg] | 
[V:2] C,CEB, | 
[V:1] [c3f3][Be] | 
[V:2] A,,A,CG, | 
[V:1] [A3d3][G^c] | 
[V:2] F,,F,A,E, | 
[V:1] dAeA | 
[V:2] F,2^C,2 | 
[V:1] fgaf | 
[V:2] D,E,F,D, | 
[V:1] [G2=c2e2][G2B2d2] | 
[V:2] G,^F,G,G,, | 
[V:1] ^c4 & z GA_B | 
[V:2] z _B,A,G, | 
[V:1] dAeA | 
[V:2] F,2^C,2 | 
[V:1] fgaf | 
[V:2] D,E,F,D, | 
[V:1] [G2=c2e2][G2B2d2] | 
[V:2] G,^F,G,G,, | 
[V:1] ^c4 & z GA_B | 
[V:2] z _B,A,G, | 
[V:1] defd & A4 | 
[V:2] F,E,D,F, | 
[V:1] ^d4 & z A=Bc | 
[V:2] z =C=B,A, | 
[V:1] e^fge & B4 | 
[V:2] G,^F,E,G, | 
[V:1] c'3b & e4 | 
[V:2] A,A,,A,B, | 
[V:1] a3g & e4 | 
[V:2] CC,CB, | 
[V:1] [c3^f3][^ce] | 
[V:2] A,A,,A,^A, | 
[V:1] e^d^cB & B2x2 | 
[V:2] B,2z2 | 
[V:1] z Be^d & zB3 | 
[V:2] [G,,3G,3][^F,,^F,] | 
[V:1] z Bg^f & zB3 | 
[V:2] [E,,3E,3][^D,,^D,] | 
[V:1] z Bga & zB3 | 
[V:2] [E,,3E,3][^F,,^F,] | 
[V:1] z Bg^f & zB3 | 
[V:2] [E,,2E,2][^D,,2^D,2] | 
[V:1] z Bag & zB3 | 
[V:2] [^F,,3^F,3][E,,E,] | 
[V:1] z B^fg & zB3 | 
[V:2] [^D,,3^D,3][E,,E,] | 
[V:1] z Bab & zB3 | 
[V:2] [^F,,3^F,3][G,,G,] | 
[V:1] z Bag & zB3 | 
[V:2] [^F,,2^F,2][E,,2E,2] | 
[V:1] Bbe'=d' | 
[V:2] [G,3B,3][^F,A,] | 
[V:1] Ggc'b | 
[V:2] [E,3G,3][=D,^F,] | 
[V:1] Eeag | 
[V:2] [C,3E,3][B,,D,] | 
[V:1] Cc=fe | 
[V:2] [A,,3C,3][G,,B,,] | 
[V:1] ^d^fBa | 
[V:2] [^F,,2A,,2][^D,,2B,,2-] | 
[V:1] gec'a | 
[V:2] [E,,2B,,2]A,,2 | 
[V:1] gb^d^f | 
[V:2] B,,2B,,,2 | 
[V:1] eBGE | 
[V:2] E,,2z2 | 
[V:1] Bbe'^d' | 
[V:2] [G,3B,3][^F,A,] | 
[V:1] Ggc'b | 
[V:2] [E,3G,3][=D,^F,] | 
[V:1] Eeag | 
[V:2] [C,3E,3][B,,D,] | 
[V:1] Cc=fe | 
[V:2] [A,,3C,3][G,,B,,] | 
[V:1] ^d^fBa | 
[V:2] [^F,,2A,,2][^D,,2B,,2-] | 
[V:1] gec'a | 
[V:2] [E,,2B,,2]A,,2 | 
[V:1] gb^d^f | 
[V:2] B,,2B,,,2 | 
[V:1] e4- & e3=d | 
[V:2] z E,^F,^G, | 
[V:1] e4 & cBAc | 
[V:2] A,B,CA, | 
[V:1] =f4- & d3c | 
[V:2] z D,E,=F, | 
[V:1] f4 & BAGB | 
[V:2] =G,A,B,G, | 
[V:1] e4- & c3B | 
[V:2] z C,D,E, | 
[V:1] e4 & AGFA | 
[V:2] F,G,A,F, | 
[V:1] d4- & B3A | 
[V:2] z B,,C,D, | 
[V:1] d4 & ^GABG | 
[V:2] E,^F,^G,E, | 
[V:1] cAe2- & z2z B | 
[V:2] A,2z =G, | 
[V:1] efd2- & A3B | 
[V:2] =F,3D, | 
[V:1] dec2- & ^G3A | 
[V:2] E,3C, | 
[V:1] cdBA & ^F4 | 
[V:2] D,3^D, | 
[V:1] ^GBeG & E zz2 | 
[V:2] E,4 | 
[V:1] Ae^dA | 
[V:2] [F,4A,4] | 
[V:1] ^GBeG | 
[V:2] [E,4B,4] | 
[V:1] Ae^dA | 
[V:2] [F,4A,4] | 
[V:1] ^GBeG | 
[V:2] [E,4B,4] | 
[V:1] Ae^dA | 
[V:2] [F,4A,4] | 
[V:1] ^GBe^d | 
[V:2] [E,2B,2]z2 | 
[V:1] =d^cdB | 
[V:2] z4 | 
[V:1] =c3B & A3^G | 
[V:2] z A,ED & zA,3 | 
[V:1] A3^G & E4 | 
[V:2] z A,CB, & zA,3 | 
[V:1] A3B & E4 | 
[V:2] z A,C^G, | 
[V:1] {/d}c2B2 & A2^G2 | 
[V:2] z A,EE, | 
[V:1] d3c & A4 | 
[V:2] z F,FE | 
[V:1] f3e & A4 | 
[V:2] z D,DC | 
[V:1] d3c & ^G3A | 
[V:2] z B,,B,A, | 
[V:1] cB GE & ^G2z2 | 
[V:2] [E,2E2]E,2 | 
[V:1] c3B & A3^G | 
[V:2] z A,ED & zA,3 | 
[V:1] A3^G & E4 | 
[V:2] z A,CB, & zA,3 | 
[V:1] A3B & E4 | 
[V:2] z A,C^G, | 
[V:1] {/d}c2B2 & A2^G2 | 
[V:2] z A,EE, | 
[V:1] f3e & A4 | 
[V:2] z D,DC | 
[V:1] d3c & A4 | 
[V:2] z F,FE | 
[V:1] cBA^G | 
[V:2] D2E2 | 
[V:1] A .^c.d.e | 
[V:2] F2z2 | 
[V:1] f3e & A4 | 
[V:2] z D,D=C | 
[V:1] ^g3a & d3c | 
[V:2] z B,,B,A, | 
[V:1] b3c' & e3a | 
[V:2] z ^G,,^G,^F, | 
[V:1] d'4 & ^g2ab | 
[V:2] E,E,,^F,,^G,, | 
[V:1] [a3c'3][=gb] | 
[V:2] A,,A,CE | 
[V:1] [=f3a3][eg] | 
[V:2] =F,,F,A,C | 
[V:1] [d3f3][ce] | 
[V:2] D,,D,F,A, | 
[V:1] [B3d3]c | 
[V:2] B,,,B,,D,F, | 
[V:1] [F2^G2B2].d.f | 
[V:2] D,,D,F,D, | 
[V:1] fe.d.c & A2z2 | 
[V:2] C,2F,2 | 
[V:1] cB.A.^G | 
[V:2] D,2E,2 | 
[V:1] Ace ^g | 
[V:2] A,,2z2 | 
[V:1] [a3c'3][=gb] | 
[V:2] A,,A,CE | 
[V:1] [f3a3][eg] | 
[V:2] F,,F,A,C | 
[V:1] [d3f3][ce] | 
[V:2] D,,D,F,A, | 
[V:1] [B3d3][Ac] | 
[V:2] B,,,B,,D,F, | 
[V:1] [F2^G2B2].d.f | 
[V:2] D,,D,F,D, | 
[V:1] fe.d.c & A2z2 | 
[V:2] C,2[F,,2F,2] | 
[V:1] cB.A.^G | 
[V:2] [D,,2D,2][E,,2E,2] | 
[V:1] .A.E.A.B ]|:  
[V:2] [A,,,2A,,2]z2 ]|:  
[V:1]  [K:A] [A3c3][ce] | 
[V:2]  [K:A] A,CEC & A,4 | 
[V:1] [ce][Bd] [Bd][Ac] | 
[V:2] A,DFD & A,4 | 
[V:1] [Ac][GB] [GB][Bd] | 
[V:2] A,B,DB, & A,4 | 
[V:1] [Bd][Ac][A2c2] | 
[V:2] A,CEC & A,4 | 
[V:1] [c3a3][eg] | 
[V:2] A,CEC & A,4 | 
[V:1] [eg][df] [df][ce] | 
[V:2] A,DFE & A,4 | 
[V:1] [ce][Bd] [Bd][Ac] | 
[V:2] A,B,DC & A,4 | 
[V:1] [Ac][GB]A2 | 
[V:2] DECA, & A,4 | 
[V:1] [A3c3][ce] | 
[V:2] A,CEC & A,4 | 
[V:1] [ce][Bd] [Bd][Ac] | 
[V:2] A,DFD & A,4 | 
[V:1] [Ac][GB] [GB][Bd] | 
[V:2] A,B,DB, & A,4 | 
[V:1] [Bd][Ac][A2c2] | 
[V:2] A,CEC & A,4 | 
[V:1] cB2B & A3A | 
[V:2] B,^DFD & B,4 | 
[V:1] Be cf & G2.A2 | 
[V:2] E2A,2 | 
[V:1] e2!trill!^d2{/cd} & B4 | 
[V:2] G2F2 & B,4 | 
[V:1] e2z2 :|]|:  
[V:2] E2E,2 :|]|:  
[V:1] e^def | 
[V:2] z4 | 
[V:1] e=dcB | 
[V:2] z4[K:clef=treble] | 
[V:1] ^ABcA | 
[V:2] [E2=G2][E2G2] | 
[V:1] B^ABc | 
[V:2] [D2F2]z2 | 
[V:1] !mordent!dcde | 
[V:2] z4 | 
[V:1] d=cB=A | 
[V:2] z4 | 
[V:1] GABG | 
[V:2] [D2=F2][D2F2] | 
[V:1] Acec | 
[V:2] [C2E2]z2[K:clef=bass] | 
[V:1] [c3a3][eg] | 
[V:2] A,CEC & A,4 | 
[V:1] [eg][df] [df][ce] | 
[V:2] A,DFE & A,4 | 
[V:1] [ce][Bd] [Bd][Ac] | 
[V:2] A,B,DC & A,4 | 
[V:1] [Ac][GB]A2 | 
[V:2] DECA, & A,4 | 
[V:1] B3c & G4 | 
[V:2] DEDE & A,2A,2 | 
[V:1] BAA2 | 
[V:2] CECE & A,4 | 
[V:1] B3c & G4 |[1 
[V:2] DEDE & A,2A,2 | 
[V:1] A2z2 :|][2 
[V:2] C2A,,2 & A,2x2 :|]  
[V:1] AEAB || 
[V:2] C2z2 & A,2z2 ||  
[V:1]  [K:C] c3B & A3^G | 
[V:2]  [K:C] z A,ED & zA,3 | 
[V:1] A3^G & E4 | 
[V:2] z A,CB, & zA,3 | 
[V:1] A3B & E4 | 
[V:2] z A,C^G, | 
[V:1] {/d}c2B2 & A2^G2 | 
[V:2] z A,EE, | 
[V:1] d3c & A4 | 
[V:2] z F,FE | 
[V:1] f3e & A4 | 
[V:2] z D,DC | 
[V:1] d3c & ^G3A | 
[V:2] z B,,B,A, | 
[V:1] cB GE & ^G2z2 | 
[V:2] [E,2E2]E,2 | 
[V:1] c3B & A3^G | 
[V:2] z A,ED & zA,3 | 
[V:1] A3^G & E4 | 
[V:2] z A,CB, & zA,3 | 
[V:1] A3B & E4 | 
[V:2] z A,C^G, | 
[V:1] {/d}c2B2 & A2^G2 | 
[V:2] z A,EE, | 
[V:1] f3e & A4 | 
[V:2] z D,DC | 
[V:1] d3c & A4 | 
[V:2] z F,FE | 
[V:1] cBA^G | 
[V:2] D2E2 | 
[V:1] A .^c.d.e | 
[V:2] F2z2 | 
[V:1] f3e & A4 | 
[V:2] z D,D=C | 
[V:1] ^g3a & d3=c | 
[V:2] z B,,B,A, | 
[V:1] [ce][Bd][Ac][^GB] | 
[V:2] D2E2 | 
[V:1] .A.c.e.a | 
[V:2] A,2z2[K:clef=treble] | 
[V:1] _b3=g | 
[V:2] z ^C=G_B | 
[V:1] gf.e.d | 
[V:2] z DFA | 
[V:1] c'3a | 
[V:2] z ^DA=c | 
[V:1] a^g.^f.e | 
[V:2] z E^GB[K:clef=bass] | 
[V:1] d'4 & a3^g | 
[V:2] z F,FE | 
[V:1] d'4 & a3^g | 
[V:2] z F,FE | 
[V:1] d'4 & a3^g | 
[V:2] z F,FE | 
[V:1] d'4 & a3^g | 
[V:2] z F,FE | 
[V:1] z Eed & zE3 | 
[V:2] [C,,3C,3][B,,,B,,] | 
[V:1] z EcB & zE3 | 
[V:2] [A,,,3A,,3][B,,,B,,] | 
[V:1] z EAB & zE3 | 
[V:2] [C,,3C,3][D,,D,] | 
[V:1] z EA^G & zE3 | 
[V:2] [C,,2C,2][B,,,2B,,2] | 
[V:1] [D3d3][Cc] | 
[V:2] zE,3 & z E,B,A, | 
[V:1] [B,3B3][Cc] | 
[V:2] zE,3 & z E,^G,A, | 
[V:1] [D3d3][Ee] | 
[V:2] zE,3 & z E,B,C | 
[V:1] [D2d2][C2c2] | 
[V:2] zE,3 & z E,B,A, | 
[V:1] [e3a3][d=g] | 
[V:2] C,CEB, | 
[V:1] [c3f3][Be] | 
[V:2] A,,A,CG, | 
[V:1] [A3d3][Gc] | 
[V:2] F,,F,A,E, | 
[V:1] [F3B3][EA] | 
[V:2] D,,D,F,C, | 
[V:1] ^GBEd | 
[V:2] B,,2^G,,2 | 
[V:1] cAfd | 
[V:2] A,,2D,2 | 
[V:1] [E2A2c2][E2^G2B2] | 
[V:2] E,2E,,2 | 
[V:1] A2z2 | 
[V:2] A,,,C,,E,,A,, | 
[V:1] Eea=g | 
[V:2] [C,3E,3][B,,D,] | 
[V:1] Ccfe | 
[V:2] [A,,3C,3][G,,B,,] | 
[V:1] A,Adc | 
[V:2] [F,,3A,,3][E,,G,,] | 
[V:1] F,FBA | 
[V:2] [D,,3F,,3][C,,E,,] | 
[V:1] ^GBEd | 
[V:2] [B,,,2D,,2][^G,,2E,2-] | 
[V:1] cAfd | 
[V:2] [A,,2E,2]D,2 | 
[V:1] [E2A2c2][E2^G2B2] | 
[V:2] E,^D,E,E,, | 
[V:1] ^c4 & z =GA_B | 
[V:2] z _B,A,=G, | 
[V:1] defd & A4 | 
[V:2] F,E,D,F, | 
[V:1] ^d4 & z A=B=c | 
[V:2] z =C=B,A, | 
[V:1] e^f^ge & B4 | 
[V:2] ^G,^F,E,G, | 
[V:1] ^g4 & z de=f | 
[V:2] z =FED | 
[V:1] aex2 & e x fd | 
[V:2] C2D2 | 
[V:1] cAe^G | 
[V:2] E2E,2 | 
[V:1] c'3b & z eag | 
[V:2] z4 | 
[V:1] a3=g & z cfe | 
[V:2] z4 | 
[V:1] f3e & z Adc | 
[V:2] z4 | 
[V:1] d3c & z FBA | 
[V:2] z4 | 
[V:1] B2[F2B2f2] | 
[V:2] z2[D,2F,2B,2] | 
[V:1] [A2c2e2][B,2E2^G2] | 
[V:2] [E,2A,2C2][E,,2E,2] | 
[V:1] c'3b & z ea=g | 
[V:2] z4 | 
[V:1] a3=g & z cfe | 
[V:2] z4 | 
[V:1] f3e & z Adc | 
[V:2] z4 | 
[V:1] d3c & z FBA | 
[V:2] z4 | 
[V:1] B2[B2f2] | 
[V:2] z2[D,2F,2B,2] | 
[V:1] [A2c2e2][B,2E2^G2] | 
[V:2] [E,2A,2C2][E,,2E,2] | 
[V:1] AEcA | 
[V:2] A,,2z2 | 
[V:1] ecB^G | 
[V:2] z4 | 
[V:1] A[Ee][Ee][Ee] | 
[V:2] A,,E,,C,A,, | 
[V:1] [Ee][Ee][Ee][Ee] | 
[V:2] E,C,B,,^G,, | 
[V:1] [E2e2][c2e2a2] | 
[V:2] A,,[E,,E,][E,,E,][E,,E,] | 
[V:1] [e2a2c'2][e2^g2b2] | 
[V:2] [E,,E,][E,,E,][E,,E,][E,,E,] | 
[V:1] a2[C2E2A2] | 
[V:2] [A,,2A,2][A,,,2A,,2] | 
[V:1] [C2E2A2]z2 |]  
[V:2] [A,,,2A,,2]z2 |]  


